src/images/badges/most-viewed-month-line.svg

<svg width="80" height="20" viewBox="0 0 80 20" fill="none" xmlns="http://www.w3.org/2000/svg">
<path d="M79 10C79 5.02944 74.9706 1 70 1L10 1C5.02944 1 1 5.02944 1 10C1 14.9706 5.02944 19 10 19H70C74.9706 19 79 14.9706 79 10Z" fill="#2E9AFF"/>
<path d="M40.9665 4.33617C40.9665 4.4929 41.0449 4.62351 41.2016 4.70187C42.5599 5.45941 43.9444 6.92224 43.9444 9.87401C43.9444 12.8258 42.586 14.3409 41.2016 15.0984C41.0449 15.2029 40.9665 15.3074 40.9665 15.4641C40.9665 15.6731 41.0971 15.8037 41.3061 15.8037C41.3844 15.8037 41.4889 15.8037 41.6718 15.6992C43.1346 14.9678 44.8064 13.1392 44.8064 9.90013C44.8064 6.66102 43.1346 4.83248 41.6718 4.10107C41.4889 4.0227 41.3844 3.99658 41.3061 3.99658C41.0971 3.99658 40.9665 4.12719 40.9665 4.33617Z" fill="black"/>
<path d="M10.4039 15.4902C10.4039 15.3335 10.3255 15.2029 10.1688 15.1245C8.78433 14.367 7.42599 12.878 7.42599 9.92626C7.42599 6.97448 8.78433 5.48553 10.1688 4.728C10.3255 4.62351 10.4039 4.51902 10.4039 4.36229C10.4039 4.15331 10.2733 4.02271 10.0643 4.02271C9.98593 4.02271 9.88145 4.02271 9.69859 4.12719C8.23577 4.88473 6.56396 6.68714 6.56396 9.92626C6.56396 13.1654 8.23577 14.9939 9.69859 15.7253C9.88145 15.8037 9.98593 15.8298 10.0643 15.8298C10.2733 15.8298 10.4039 15.6992 10.4039 15.4902Z" fill="black"/>
<path d="M16.8038 9.87399V12.6952C16.8038 12.9303 16.9344 13.1131 17.1695 13.1131C17.4307 13.1131 17.5352 12.9041 17.5352 12.669V9.5344C17.5352 9.24706 17.3784 9.09033 17.0911 9.09033H12.7549C12.4936 9.09033 12.3108 9.22094 12.3108 9.48216C12.3108 9.74338 12.5198 9.87399 12.7549 9.87399H16.8038Z" fill="black"/>
<path fill-rule="evenodd" clip-rule="evenodd" d="M25.4501 7.88864C26.0509 8.41108 26.4427 9.19474 26.4427 10.1351C26.4427 11.8592 25.1628 13.113 23.491 13.113C21.8192 13.113 20.5392 11.8592 20.5392 10.1351C20.5392 8.4372 21.7669 7.18335 23.4126 7.18335H26.8607C27.148 7.18335 27.3048 7.34008 27.3048 7.54906C27.3048 7.78415 27.148 7.94088 26.8607 7.94088C26.7367 7.94088 26.3342 7.92451 25.848 7.90473L25.4501 7.88864ZM23.491 7.91476C22.3155 7.91476 21.349 8.82903 21.349 10.1351C21.349 11.4412 22.3155 12.3555 23.491 12.3555C24.6664 12.3555 25.633 11.4412 25.633 10.1351C25.633 8.82903 24.6664 7.91476 23.491 7.91476Z" fill="black"/>
<path d="M31.7193 12.199C31.5626 12.199 31.4842 12.3035 31.432 12.4341C31.223 12.9826 30.7267 13.3483 30.0475 13.3483C29.3684 13.3483 28.9243 12.9565 28.7153 12.4341C28.6631 12.3035 28.5847 12.199 28.428 12.199C28.2712 12.199 28.1667 12.3296 28.1667 12.5124C28.1667 12.6953 28.2451 12.9565 28.3496 13.1394C28.6108 13.6096 29.1071 14.132 30.0736 14.132C31.0402 14.132 31.5365 13.6096 31.7977 13.1394C31.9022 12.9826 31.9805 12.6953 31.9805 12.5124C31.9805 12.3296 31.9022 12.199 31.7193 12.199Z" fill="black"/>
<path fill-rule="evenodd" clip-rule="evenodd" d="M38.6155 7.88864C39.2163 8.41108 39.6081 9.19474 39.6081 10.1351C39.6081 11.8592 38.3282 13.113 36.6564 13.113C34.9846 13.113 33.7046 11.8592 33.7046 10.1351C33.7046 8.4372 34.9323 7.18335 36.578 7.18335H40.0261C40.3134 7.18335 40.4702 7.34008 40.4702 7.54906C40.4702 7.78415 40.3134 7.94088 40.0261 7.94088C39.9186 7.94088 39.6143 7.92858 39.2145 7.91243C39.0316 7.90504 38.8287 7.89684 38.6155 7.88864ZM36.6564 7.91476C35.4809 7.91476 34.5144 8.82903 34.5144 10.1351C34.5144 11.4412 35.4809 12.3555 36.6564 12.3555C37.8319 12.3555 38.7984 11.4412 38.7984 10.1351C38.7984 8.82903 37.8319 7.91476 36.6564 7.91476Z" fill="black"/>
<path d="M51.7287 12.6952V9.87399H47.6799C47.4448 9.87399 47.2358 9.74338 47.2358 9.48216C47.2358 9.22094 47.4186 9.09033 47.6799 9.09033H52.0161C52.3034 9.09033 52.4602 9.24706 52.4602 9.5344V12.669C52.4602 12.9041 52.3557 13.1131 52.0945 13.1131C51.8594 13.1131 51.7287 12.9303 51.7287 12.6952Z" fill="black"/>
<path d="M53.6878 15.2029C53.4789 15.2029 53.2699 15.3596 53.2699 15.5947C53.2699 15.8037 53.4527 15.9604 53.6878 15.9604H63.8754C64.1105 15.9604 64.2934 15.7776 64.2934 15.5686C64.2934 15.3596 64.1105 15.2029 63.8754 15.2029H53.6878Z" fill="black"/>
<path d="M73.436 4.36229C73.436 4.15331 73.2793 3.99658 73.0442 3.99658C72.8875 3.99658 72.7568 4.12719 72.6785 4.23168L66.148 15.2029C66.0958 15.2551 66.0696 15.3335 66.0696 15.438C66.0696 15.647 66.2264 15.8037 66.4615 15.8037C66.6182 15.8037 66.7488 15.6992 66.8272 15.5686L73.3577 4.59739C73.4099 4.54514 73.436 4.46678 73.436 4.36229Z" fill="black"/>
</svg>

<svg xmlns="http://www.w3.org/2000/svg" width="80" height="20" fill="none"><path fill="#2E9AFF" d="M79 10a9 9 0 0 0-9-9H10a9 9 0 0 0 0 18h60a9 9 0 0 0 9-9Z"/><path fill="#000" d="M40.967 4.336c0 .157.078.288.235.366 1.358.757 2.742 2.22 2.742 5.172 0 2.952-1.358 4.467-2.742 5.224-.157.105-.235.21-.235.366 0 .21.13.34.34.34.077 0 .182 0 .365-.105 1.463-.731 3.134-2.56 3.134-5.799 0-3.239-1.671-5.068-3.134-5.799-.183-.078-.288-.104-.366-.104-.209 0-.34.13-.34.34ZM10.404 15.49a.394.394 0 0 0-.235-.366c-1.385-.757-2.743-2.246-2.743-5.198 0-2.952 1.358-4.44 2.743-5.198.156-.104.235-.209.235-.366 0-.209-.13-.34-.34-.34-.078 0-.183 0-.365.105-1.463.758-3.135 2.56-3.135 5.8 0 3.238 1.672 5.067 3.135 5.798.182.079.287.105.365.105.21 0 .34-.13.34-.34ZM16.804 9.874v2.821c0 .235.13.418.366.418.26 0 .365-.209.365-.444V9.534c0-.287-.157-.444-.444-.444h-4.336c-.261 0-.444.13-.444.392 0 .261.209.392.444.392h4.049Z"/><path fill="#000" fill-rule="evenodd" d="M25.45 7.889c.6.522.993 1.306.993 2.246 0 1.724-1.28 2.978-2.952 2.978s-2.952-1.254-2.952-2.978c0-1.698 1.228-2.952 2.874-2.952h3.448c.287 0 .444.157.444.366 0 .235-.157.392-.444.392-.124 0-.527-.016-1.013-.036l-.398-.016Zm-1.959.026c-1.175 0-2.142.914-2.142 2.22s.966 2.22 2.142 2.22c1.175 0 2.142-.914 2.142-2.22s-.967-2.22-2.142-2.22Z" clip-rule="evenodd"/><path fill="#000" d="M31.72 12.199c-.157 0-.236.104-.288.235-.209.549-.705.914-1.384.914-.68 0-1.124-.392-1.333-.914-.052-.13-.13-.235-.287-.235-.157 0-.261.13-.261.313s.078.444.183.627c.26.47.757.993 1.724.993.966 0 1.462-.522 1.724-.993.104-.156.183-.444.183-.627 0-.182-.079-.313-.262-.313Z"/><path fill="#000" fill-rule="evenodd" d="M38.615 7.889c.601.522.993 1.306.993 2.246 0 1.724-1.28 2.978-2.952 2.978-1.671 0-2.951-1.254-2.951-2.978 0-1.698 1.227-2.952 2.873-2.952h3.448c.287 0 .444.157.444.366 0 .235-.157.392-.444.392-.107 0-.412-.012-.812-.029l-.599-.023Zm-1.959.026c-1.175 0-2.142.914-2.142 2.22s.967 2.22 2.142 2.22c1.176 0 2.142-.914 2.142-2.22s-.966-2.22-2.142-2.22Z" clip-rule="evenodd"/><path fill="#000" d="M51.729 12.695V9.874h-4.05c-.234 0-.443-.13-.443-.392 0-.261.183-.392.444-.392h4.336c.287 0 .444.157.444.444v3.135c0 .235-.104.444-.366.444-.235 0-.365-.183-.365-.418ZM53.688 15.203c-.21 0-.418.157-.418.392 0 .209.183.365.418.365h10.187c.236 0 .418-.182.418-.391 0-.21-.183-.366-.418-.366H53.688ZM73.436 4.362c0-.209-.157-.365-.392-.365-.156 0-.287.13-.365.235l-6.531 10.97c-.052.053-.078.132-.078.236 0 .209.156.366.392.366.156 0 .287-.105.365-.235l6.53-10.972c.053-.052.079-.13.079-.235Z"/></svg>
